static/images/logo-zmmr.svg

<svg xmlns="http://www.w3.org/2000/svg" viewBox="0 0 400 108">
  <g fill="#888">
    <path d="m3.26 0h82.8l-56.39 92.11h56.08v15.89h-85.75l56.39-92.11h-53.13z"/>
    <path d="m188.74 108v-40.27q0-8.64-3.19-13.65t-10.33-5a15.87 15.87 0 0 0 -6 1.09 11.63 11.63 0 0 0 -4.81 3.7 18.89 18.89 0 0 0 -3.27 6.86 41.64 41.64 0 0 0 -1.14 10.7v36.57h-16.93v-40.42q0-8.64-3-13.58t-10.18-4.94a16.43 16.43 0 0 0 -6.05 1.09 11.57 11.57 0 0 0 -4.9 3.7 19.78 19.78 0 0 0 -3.34 6.86 38.81 38.81 0 0 0 -1.24 10.72v36.57h-16.96v-71.9h16.93v10a20.55 20.55 0 0 1 7.67-8.38 22.51 22.51 0 0 1 12.5-3.47q9.94 0 15.23 3.7a21.41 21.41 0 0 1 7.61 9.11 22.4 22.4 0 0 1 8.56-9.06 25.26 25.26 0 0 1 13.67-3.7c5.38 0 9.79.85 13.2 2.55a21.18 21.18 0 0 1 8 6.55 23.26 23.26 0 0 1 3.88 9 51.26 51.26 0 0 1 1 10.1v45.5z"/>
    <path d="m317.05 108v-40.27q0-8.64-3.19-13.65t-10.33-5a15.87 15.87 0 0 0 -6 1.09 11.7 11.7 0 0 0 -4.81 3.7 18.73 18.73 0 0 0 -3.26 6.86 41.15 41.15 0 0 0 -1.17 10.72v36.55h-16.91v-40.42q0-8.64-3-13.58t-10.17-4.94a16.44 16.44 0 0 0 -6.06 1.09 11.57 11.57 0 0 0 -4.9 3.7 19.78 19.78 0 0 0 -3.34 6.86 38.81 38.81 0 0 0 -1.24 10.72v36.57h-16.96v-71.9h16.93v10a20.55 20.55 0 0 1 7.69-8.41 22.52 22.52 0 0 1 12.51-3.47q9.93 0 15.22 3.7a21.41 21.41 0 0 1 7.61 9.11 22.47 22.47 0 0 1 8.54-9.03 25.26 25.26 0 0 1 13.67-3.7q8.08 0 13.21 2.55a21.15 21.15 0 0 1 8 6.55 23.26 23.26 0 0 1 3.88 9 51.26 51.26 0 0 1 1 10.1v45.5z"/>
    <path d="m400 51.69a31.51 31.51 0 0 0 -3.34-.62 30.61 30.61 0 0 0 -3.34-.15q-10.87 0-16.62 6.24t-5.7 19.84v31h-17v-71.9h17v11.57a18.12 18.12 0 0 1 3.5-4.7 26.19 26.19 0 0 1 5.28-4 28.46 28.46 0 0 1 6.52-2.78 25.42 25.42 0 0 1 7.07-1 17.79 17.79 0 0 1 6.63 1.07z"/>
    <path d="m383.96 13.22h-2.48v-1.46h6.62v1.46h-2.49v8.5h-1.65z"/>
    <path d="m398.7 21.72h-1.65v-6.16l-2.5 6.16h-1.25l-2.51-6.16v6.16h-1.65v-9.96h1.58l3.21 7.41 3.2-7.41h1.57z"/>
  </g>
</svg>

<svg xmlns="http://www.w3.org/2000/svg" id="Layer_1" data-name="Layer 1" viewBox="0 0 400 108">
  <title>
    logo-zmmr
  </title>
  <polygon fill="#888888" points="3.26 0 86.06 0 29.67 92.11 85.75 92.11 85.75 108 0 108 56.39 15.89 3.26 15.89 3.26 0"/>
  <path fill="#888888" d="M188.74,108V67.73q0-8.64-3.19-13.65t-10.33-5a15.87,15.87,0,0,0-6,1.09,11.63,11.63,0,0,0-4.81,3.7,18.89,18.89,0,0,0-3.27,6.86A41.64,41.64,0,0,0,160,71.43V108H143.07V67.58q0-8.64-3-13.58t-10.18-4.94a16.43,16.43,0,0,0-6.05,1.09,11.57,11.57,0,0,0-4.9,3.7,19.78,19.78,0,0,0-3.34,6.86,38.81,38.81,0,0,0-1.24,10.72V108H97.4V36.1h16.93v10A20.55,20.55,0,0,1,122,37.72a22.51,22.51,0,0,1,12.5-3.47q9.94,0,15.23,3.7a21.41,21.41,0,0,1,7.61,9.11A22.4,22.4,0,0,1,165.9,38a25.26,25.26,0,0,1,13.67-3.7c5.38,0,9.79.85,13.2,2.55a21.18,21.18,0,0,1,8,6.55,23.26,23.26,0,0,1,3.88,9,51.26,51.26,0,0,1,1,10.1V108Z"/>
  <path fill="#888888" d="M317.05,108V67.73q0-8.64-3.19-13.65t-10.33-5a15.87,15.87,0,0,0-6,1.09,11.7,11.7,0,0,0-4.81,3.7,18.73,18.73,0,0,0-3.26,6.86,41.15,41.15,0,0,0-1.17,10.72V108H271.38V67.58q0-8.64-3-13.58t-10.17-4.94a16.44,16.44,0,0,0-6.06,1.09,11.57,11.57,0,0,0-4.9,3.7,19.78,19.78,0,0,0-3.34,6.86,38.81,38.81,0,0,0-1.24,10.72V108H225.71V36.1h16.93v10a20.55,20.55,0,0,1,7.69-8.41,22.52,22.52,0,0,1,12.51-3.47q9.93,0,15.22,3.7a21.41,21.41,0,0,1,7.61,9.11A22.47,22.47,0,0,1,294.21,38a25.26,25.26,0,0,1,13.67-3.7q8.08,0,13.21,2.55a21.15,21.15,0,0,1,8,6.55,23.26,23.26,0,0,1,3.88,9,51.26,51.26,0,0,1,1,10.1V108Z"/>
  <path fill="#888888" d="M400,51.69a31.51,31.51,0,0,0-3.34-.62,30.61,30.61,0,0,0-3.34-.15q-10.87,0-16.62,6.24T371,77v31H354V36.1H371V47.67a18.12,18.12,0,0,1,3.5-4.7,26.19,26.19,0,0,1,5.28-4,28.46,28.46,0,0,1,6.52-2.78,25.42,25.42,0,0,1,7.07-1A17.79,17.79,0,0,1,400,36.26Z"/>
  <polygon fill="#888888" points="383.96 13.22 381.48 13.22 381.48 11.76 388.1 11.76 388.1 13.22 385.61 13.22 385.61 21.72 383.96 21.72 383.96 13.22"/>
  <polygon fill="#888888" points="398.7 21.72 397.05 21.72 397.05 15.56 394.55 21.72 393.3 21.72 390.79 15.56 390.79 21.72 389.14 21.72 389.14 11.76 390.72 11.76 393.93 19.17 397.13 11.76 398.7 11.76 398.7 21.72"/>
</svg>
